symbols/web/lightbulb/materialsymbolsrounded/lightbulb_wght600grad200_48px.svg

<svg xmlns="http://www.w3.org/2000/svg" height="48" width="48"><path d="M24 45.5q-1.75 0-3.05-1.35-1.3-1.35-1.3-3.25h8.7q0 1.9-1.3 3.25T24 45.5Zm-6.6-7.75q-.85 0-1.325-.525T15.6 36q0-.8.5-1.275.5-.475 1.3-.475h13.3q.75 0 1.225.475.475.475.475 1.275 0 .75-.475 1.25t-1.225.5Zm-1.55-6.6q-3.55-2.3-5.675-5.775Q8.05 21.9 8.05 17.55q0-6.45 4.725-11.2Q17.5 1.6 24 1.6t11.25 4.75Q40 11.1 40 17.55q0 4.3-2.1 7.8t-5.75 5.8Zm1.5-4.15H30.7q2.3-1.6 3.7-4.075 1.4-2.475 1.4-5.375 0-4.8-3.5-8.275Q28.8 5.8 24 5.8q-4.85 0-8.325 3.45-3.475 3.45-3.475 8.3 0 2.9 1.4 5.375T17.35 27ZM24 27Z"/></svg>

<svg xmlns="http://www.w3.org/2000/svg" height="48" width="48"><path d="M24 45.5Q22.25 45.5 20.95 44.15Q19.65 42.8 19.65 40.9H28.35Q28.35 42.8 27.05 44.15Q25.75 45.5 24 45.5ZM17.4 37.75Q16.55 37.75 16.075 37.225Q15.6 36.7 15.6 36Q15.6 35.2 16.1 34.725Q16.6 34.25 17.4 34.25H30.7Q31.45 34.25 31.925 34.725Q32.4 35.2 32.4 36Q32.4 36.75 31.925 37.25Q31.45 37.75 30.7 37.75ZM15.85 31.15Q12.3 28.85 10.175 25.375Q8.05 21.9 8.05 17.55Q8.05 11.1 12.775 6.35Q17.5 1.6 24 1.6Q30.5 1.6 35.25 6.35Q40 11.1 40 17.55Q40 21.85 37.9 25.35Q35.8 28.85 32.15 31.15ZM17.35 27H30.7Q33 25.4 34.4 22.925Q35.8 20.45 35.8 17.55Q35.8 12.75 32.3 9.275Q28.8 5.8 24 5.8Q19.15 5.8 15.675 9.25Q12.2 12.7 12.2 17.55Q12.2 20.45 13.6 22.925Q15 25.4 17.35 27ZM24 27Q24 27 24 27Q24 27 24 27Q24 27 24 27Q24 27 24 27Q24 27 24 27Q24 27 24 27Q24 27 24 27Q24 27 24 27Z"/></svg>
